!!!COM: Music21
!!!OTL: Alalá do Cebreiro
!!!OMV: pezas_alalas_alala-do-cebreiro_alala-do-cebreiro-partitura.musicxml
**kern
*part1
*staff1
*I"Bagpipes
*I'Bag
*clefG^2
*k[]
*M3/4
=1
!LO:TX:a:t=Lento
*MM48
!LO:TX:a:t=[quarter]=48
4cc
4ee
4dd
=
4cc
4ee
4ff
=
2.gg
=
2gg
12ffL
12gg
12ffJ
=
4dd
4ff
4ee
=
4dd
4cc
4b
=
2dd
8eeL
8ddJ
=
2.cc
=||
*M3/4
!LO:TX:a:t=Lento
*MM48
!LO:TX:a:t=[quarter]=48
4cc
4ee
4dd
=
4cc
4ee
4ff
=
2.gg
!!linebreak:original
=
2gg
12ffL
12gg
12ffJ
=
4dd
4ff
4ee
=
4dd
4cc
4b
=
2dd
8eeL
8ddJ
=
2.cc
=||
4ee
4gg
4ff
=
4ee
4gg
4aa
=
4.bb
8aa
8bbL
8aaJ
=
2.gg
!!linebreak:original
=
4ccc
4bb
4aa
=
4gg
4ff
4ee
=
2dd
8eeL
8ddJ
=
2.cc
=
4gg
4aa-X
4gg
=
4ff
4gg
4ff
=
4dd
4ee-X
4dd
=
8ccL
8ddJ
8ee-XL
8ffJ
4gg
=
4gg
4aa-X
4gg
=
4ff
4gg
4ff
=
4dd
4ee-X
4dd
!!linebreak:original
=
4cc
4aa-X
4gg
!!linebreak:original
=
4ff
4gg
4ff
=
2ee-X
4r
=||
4ee
4gg
4ff
=
4ee
4gg
4aa
=
4.bb
8aa
8bbL
8aaJ
=
2.gg
!!linebreak:original
=
4ccc
4bb
4aa
=
4gg
4ff
4ee
=
2dd
8eeL
8ddJ
=
2.cc
=
4gg
4aa-X
4gg
=
4ff
4gg
4ff
=
4dd
4ee-X
4dd
=
8ccL
8ddJ
8ee-XL
8ffJ
4gg
=
4gg
4aa-X
4gg
=
4ff
4gg
4ff
=
4dd
4ee-X
4dd
!!pagebreak:original
=
4cc
4aa-X
4gg
!!linebreak:original
=
4ff
4gg
4ff
=
2ee-X
4r
=||
*-
!!!system-decoration: s1,s2
